X:1
T:Adamstown, CMD
T:Adamstown, CMD
T:Alfred W. Hare, 1895
T:Public Domain Courtesy of the Cyber Hymnal™
C:Alfred W. Hare, 1895
Z:Public Domain
Z:Courtesy of the Cyber Hymnal™
%%score ( 1 2 ) ( 3 4 )
L:1/8
M:3/4
K:Bb
V:1 treble 
V:2 treble 
V:3 bass 
V:4 bass 
V:1
 [DF]2 | ([DF]2 [EG]2) [DF]2 | [DB]4 [FA]2 | [FA]4 [EG]2 | [EG]4 [EG]2 | (A2 G2) [^EF]2 | %6
 [DB]4 [Fd]2 | [Fc]4 [^EF]2 | ([DF]2 [EG]2) [DF]2 | [DB]4 [Fd]2 | [Fc]4 [FB]2 | [FA]4 [EG]2 | %12
 [DF]4 [FB]2 | (A2 G2) [EA]2 | [DB]4 [DB]2 | [EA]4 [EG]2 | F4 [Fe]2 | [Fd]4 [Ec]2 | [DB]4 [DF]2 | %19
 ([EG]2 [FA]2) [GB]2 | [GB]4 [^FA]2 | [DG]4 [EF]2 | ([DF]2 [EG]2) [DF]2 | [DB]4 [Fd]2 | %24
 [Fc]4 [FB]2 | [FA]4 [EG]2 | [DF]4 [FB]2 | (A2 G2) [EA]2 | [DB]4 |] %29
V:2
 x2 | x6 | x6 | x6 | x6 | ^E4 x2 | x6 | x6 | x6 | x6 | x6 | x6 | x6 | E4 x2 | x6 | x6 | F4 x2 | %17
 x6 | x6 | x6 | x6 | x6 | x6 | x6 | x6 | x6 | x6 | E4 x2 | x4 |] %29
V:3
 [B,,B,]2 | [B,,B,]4 [B,,B,]2 | [B,,F,]4 [D,B,]2 | [E,B,]4 [E,B,]2 | [E,B,]4 [E,B,]2 | %5
 (F,2 B,2) [F,A,]2 | [B,,F,]4 [B,,B,]2 | [F,A,]4 [D,A,]2 | [B,,B,]4 [B,,B,]2 | [B,,F,]4 [B,,B,]2 | %10
 [C,A,]4 [D,B,]2 | [E,B,]4 [E,B,]2 | [F,B,]4 [F,D]2 | [F,C]4 [F,C]2 | [B,,B,]4 [B,,B,]2 | %15
 [F,C]4 [F,B,]2 | [F,A,]4 [F,C]2 | [F,B,]4 [F,A,]2 | [B,,B,]4 [B,,B,]2 | [E,B,]4 [E,B,]2 | %20
 [D,D]4 [D,C]2 | [G,B,]4 [C,A,]2 | [B,,B,]4 [B,,B,]2 | [B,,F,]4 [B,,B,]2 | [C,A,]4 [D,B,]2 | %25
 [E,B,]4 [E,B,]2 | [F,B,]4 [F,D]2 | [F,C]4 [F,C]2 | [B,,B,]4 |] %29
V:4
 x2 | x6 | x6 | x6 | x6 | F,4 x2 | x6 | x6 | x6 | x6 | x6 | x6 | x6 | x6 | x6 | x6 | x6 | x6 | x6 | %19
 x6 | x6 | x6 | x6 | x6 | x6 | x6 | x6 | x6 | x4 |] %29

